file/snapchat.svg

<svg clip-rule="evenodd" fill-rule="evenodd" stroke-linejoin="round" stroke-miterlimit="1.41421" viewBox="0 0 560 400" xmlns="http://www.w3.org/2000/svg"><g fill-rule="nonzero"><path d="m0 0c5.999 0 10.864-4.864 10.864-10.865v-46.453c0-5.999-4.865-10.864-10.864-10.864h-46.453c-6 0-10.865 4.865-10.865 10.864v46.453c0 6.001 4.865 10.865 10.865 10.865z" fill="#fffc00" transform="matrix(3.9599927864 0 0 -3.9599927864 371.97827784 65.00017876)"/><path d="m0 0c-.129 0-.255.004-.382.01-.081-.007-.165-.01-.249-.01-2.959 0-4.858 1.342-6.695 2.641-1.268.896-2.465 1.742-3.875 1.977-.688.114-1.373.171-2.034.171-1.193 0-2.133-.184-2.82-.318-.417-.082-.777-.152-1.051-.152-.286 0-.595.062-.73.522-.117.399-.201.784-.283 1.158-.21.96-.359 1.551-.761 1.613-4.693.725-6.037 1.714-6.336 2.415-.042.1-.067.201-.072.3-.015.27.175.508.442.551 7.214 1.188 10.449 8.562 10.584 8.875.003.008.007.017.011.025.442.895.528 1.672.258 2.309-.495 1.166-2.11 1.679-3.179 2.018-.261.083-.509.161-.705.239-2.133.843-2.31 1.708-2.226 2.149.143.752 1.147 1.276 1.96 1.276.222 0 .418-.04.583-.117.96-.449 1.824-.677 2.571-.677 1.031 0 1.481.433 1.536.49-.027.488-.059.998-.092 1.525-.215 3.41-.482 7.649.598 10.068 3.234 7.251 10.092 7.815 12.117 7.815.052 0 .888.009.888.009h.12c2.029 0 8.903-.564 12.139-7.82 1.079-2.42.812-6.662.597-10.07l-.009-.149c-.03-.474-.059-.935-.083-1.377.052-.053.466-.451 1.4-.487h.001c.711.027 1.527.254 2.423.673.262.123.554.149.752.149.304 0 .611-.059.866-.165l.016-.007c.724-.257 1.199-.764 1.209-1.295.01-.5-.372-1.251-2.243-1.99-.194-.077-.442-.155-.705-.239-1.07-.339-2.684-.852-3.179-2.018-.27-.637-.184-1.413.258-2.308.004-.009.008-.017.012-.026.134-.313 3.366-7.685 10.584-8.874.266-.044.457-.282.442-.551-.006-.101-.031-.203-.074-.302-.298-.696-1.64-1.684-6.334-2.409-.384-.059-.533-.559-.762-1.607-.083-.381-.167-.756-.283-1.15-.1-.342-.313-.502-.672-.502h-.058c-.249 0-.602.045-1.05.133-.795.155-1.686.298-2.82.298-.662 0-1.347-.057-2.036-.171-1.408-.235-2.604-1.079-3.87-1.974-1.84-1.302-3.739-2.644-6.699-2.644" fill="#fff" transform="matrix(3.9599927864 0 0 -3.9599927864 280.99192896 292.71702404)"/><path d="m0 0c1.921 0 8.538-.516 11.656-7.507 1.027-2.301.764-6.471.553-9.821-.034-.532-.066-1.047-.092-1.539l-.012-.211.142-.158c.056-.063.59-.621 1.777-.667l.02-.001.019.001c.785.03 1.669.273 2.63.723.14.066.329.098.528.098.227 0 .468-.042.667-.126l.03-.012c.503-.176.859-.509.865-.81.003-.171-.125-.783-1.909-1.488-.175-.069-.405-.142-.671-.226-1.161-.369-2.915-.925-3.506-2.315-.332-.785-.242-1.71.271-2.75.211-.491 3.524-7.958 10.984-9.187-.002-.035-.011-.074-.031-.12-.126-.298-.93-1.326-5.93-2.097-.783-.121-.974-.998-1.197-2.018-.079-.364-.162-.732-.274-1.113-.034-.115-.04-.122-.164-.122h-.059c-.221 0-.559.046-.949.122-.709.139-1.68.309-2.921.309-.692 0-1.406-.061-2.122-.179-1.53-.255-2.775-1.135-4.093-2.066-1.769-1.252-3.599-2.545-6.39-2.545-.121 0-.24.004-.36.01l-.031.001-.032-.002c-.068-.006-.137-.009-.208-.009-2.791 0-4.621 1.293-6.39 2.544-1.318.932-2.563 1.812-4.092 2.067-.716.118-1.43.179-2.122.179-1.241 0-2.212-.189-2.922-.328-.39-.077-.727-.142-.949-.142-.18 0-.184.01-.222.141-.112.381-.195.759-.274 1.123-.223 1.02-.416 1.902-1.197 2.023-5.001.772-5.804 1.802-5.931 2.099-.02.046-.028.087-.03.122 7.459 1.229 10.773 8.695 10.984 9.188.512 1.04.603 1.964.27 2.749-.59 1.391-2.344 1.947-3.506 2.316-.266.084-.496.157-.67.226-1.508.596-1.971 1.195-1.901 1.559.079.419.806.845 1.44.845.142 0 .267-.022.359-.066 1.03-.482 1.971-.727 2.795-.727 1.296 0 1.874.603 1.935.672l.141.157-.012.21c-.026.492-.059 1.006-.092 1.537-.211 3.351-.474 7.518.553 9.82 3.106 6.965 9.69 7.502 11.634 7.502.048 0 .893.008.893.008.036.001.074.001.115.001m0 1.057h-.002-.125s-.817-.008-.882-.008c-2.104 0-9.235-.587-12.599-8.129-1.132-2.538-.861-6.848-.643-10.311.026-.408.053-.832.076-1.242-.174-.096-.492-.216-.992-.216-.668 0-1.457.21-2.346.627-.236.11-.508.166-.808.166-1.041 0-2.286-.685-2.479-1.705-.14-.735.189-1.807 2.551-2.74.213-.085.469-.166.74-.251.976-.31 2.451-.778 2.852-1.721.207-.489.124-1.118-.246-1.868-.008-.017-.016-.034-.023-.052-.13-.302-3.252-7.419-10.184-8.56-.533-.088-.914-.564-.884-1.103.009-.161.047-.32.112-.475.521-1.216 2.715-2.108 6.711-2.728.134-.18.273-.818.358-1.207.083-.384.169-.779.292-1.197.12-.41.433-.9 1.237-.9.325 0 .709.075 1.152.162.666.13 1.578.308 2.719.308.633 0 1.289-.055 1.949-.164 1.289-.215 2.385-.99 3.653-1.886 1.817-1.285 3.875-2.739 7.002-2.739.086 0 .172.002.258.009.101-.005.233-.009.373-.009 3.128 0 5.186 1.454 7.001 2.738 1.271.898 2.366 1.672 3.655 1.887.66.109 1.316.164 1.949.164 1.089 0 1.95-.138 2.718-.288.482-.095.869-.143 1.152-.143h.059c.594 0 1.013.314 1.179.883.121.409.207.794.292 1.184.085.388.223 1.023.356 1.203 3.997.62 6.191 1.51 6.711 2.721.066.155.105.316.114.478.03.54-.351 1.014-.884 1.102-6.935 1.143-10.055 8.259-10.184 8.561-.007.017-.015.034-.024.051-.37.751-.452 1.379-.245 1.868.4.943 1.875 1.411 2.851 1.72.273.087.529.169.74.252 1.729.683 2.596 1.521 2.578 2.492-.015.763-.609 1.443-1.553 1.78l-.003.001c-.317.132-.694.204-1.063.204-.253 0-.627-.034-.977-.198-.822-.385-1.561-.595-2.198-.623-.423.019-.699.126-.857.213.02.351.043.713.066 1.091l.009.147c.219 3.465.49 7.779-.642 10.318-3.366 7.546-10.512 8.133-12.622 8.133" fill="#030303" transform="matrix(3.9599927864 0 0 -3.9599927864 281.69592204 109.15785024)"/></g></svg>

<?xml version="1.0" encoding="UTF-8" standalone="no"?>
<!DOCTYPE svg PUBLIC "-//W3C//DTD SVG 1.1//EN" "http://www.w3.org/Graphics/SVG/1.1/DTD/svg11.dtd">
<svg width="100%" height="100%" viewBox="0 0 560 400" version="1.1" xmlns="http://www.w3.org/2000/svg" xmlns:xlink="http://www.w3.org/1999/xlink" xml:space="preserve" xmlns:serif="http://www.serif.com/" style="fill-rule:evenodd;clip-rule:evenodd;stroke-linejoin:round;stroke-miterlimit:1.41421;">
    <g transform="matrix(0.90604,0,0,0.90604,77.4736,-328.329)">
        <g>
            <g id="path3648" transform="matrix(4.37066,0,0,-4.37066,325.046,434.119)">
                <path d="M0,0C5.999,0 10.864,-4.864 10.864,-10.865L10.864,-57.318C10.864,-63.317 5.999,-68.182 0,-68.182L-46.453,-68.182C-52.453,-68.182 -57.318,-63.317 -57.318,-57.318L-57.318,-10.865C-57.318,-4.864 -52.453,0 -46.453,0L0,0Z" style="fill:rgb(255,252,0);fill-rule:nonzero;"/>
            </g>
            <g id="path3652" transform="matrix(4.37066,0,0,-4.37066,224.624,685.451)">
                <path d="M0,0C-0.129,0 -0.255,0.004 -0.382,0.01C-0.463,0.003 -0.547,0 -0.631,0C-3.59,0 -5.489,1.342 -7.326,2.641C-8.594,3.537 -9.791,4.383 -11.201,4.618C-11.889,4.732 -12.574,4.789 -13.235,4.789C-14.428,4.789 -15.368,4.605 -16.055,4.471C-16.472,4.389 -16.832,4.319 -17.106,4.319C-17.392,4.319 -17.701,4.381 -17.836,4.841C-17.953,5.24 -18.037,5.625 -18.119,5.999C-18.329,6.959 -18.478,7.55 -18.88,7.612C-23.573,8.337 -24.917,9.326 -25.216,10.027C-25.258,10.127 -25.283,10.228 -25.288,10.327C-25.303,10.597 -25.113,10.835 -24.846,10.878C-17.632,12.066 -14.397,19.44 -14.262,19.753C-14.259,19.761 -14.255,19.77 -14.251,19.778C-13.809,20.673 -13.723,21.45 -13.993,22.087C-14.488,23.253 -16.103,23.766 -17.172,24.105C-17.433,24.188 -17.681,24.266 -17.877,24.344C-20.01,25.187 -20.187,26.052 -20.103,26.493C-19.96,27.245 -18.956,27.769 -18.143,27.769C-17.921,27.769 -17.725,27.729 -17.56,27.652C-16.6,27.203 -15.736,26.975 -14.989,26.975C-13.958,26.975 -13.508,27.408 -13.453,27.465C-13.48,27.953 -13.512,28.463 -13.545,28.99C-13.76,32.4 -14.027,36.639 -12.947,39.058C-9.713,46.309 -2.855,46.873 -0.83,46.873C-0.778,46.873 0.058,46.882 0.058,46.882L0.178,46.882C2.207,46.882 9.081,46.318 12.317,39.062C13.396,36.642 13.129,32.4 12.914,28.992L12.905,28.843C12.875,28.369 12.846,27.908 12.822,27.466C12.874,27.413 13.288,27.015 14.222,26.979L14.223,26.979C14.934,27.006 15.75,27.233 16.646,27.652C16.908,27.775 17.2,27.801 17.398,27.801C17.702,27.801 18.009,27.742 18.264,27.636L18.28,27.629C19.004,27.372 19.479,26.865 19.489,26.334C19.499,25.834 19.117,25.083 17.246,24.344C17.052,24.267 16.804,24.189 16.541,24.105C15.471,23.766 13.857,23.253 13.362,22.087C13.092,21.45 13.178,20.674 13.62,19.779C13.624,19.77 13.628,19.762 13.632,19.753C13.766,19.44 16.998,12.068 24.216,10.879C24.482,10.835 24.673,10.597 24.658,10.328C24.652,10.227 24.627,10.125 24.584,10.026C24.286,9.33 22.944,8.342 18.25,7.617C17.866,7.558 17.717,7.058 17.488,6.01C17.405,5.629 17.321,5.254 17.205,4.86C17.105,4.518 16.892,4.358 16.533,4.358L16.475,4.358C16.226,4.358 15.873,4.403 15.425,4.491C14.63,4.646 13.739,4.789 12.605,4.789C11.943,4.789 11.258,4.732 10.569,4.618C9.161,4.383 7.965,3.539 6.699,2.644C4.859,1.342 2.96,0 0,0" style="fill:white;fill-rule:nonzero;"/>
            </g>
            <g id="path3656" transform="matrix(4.37066,0,0,-4.37066,225.401,482.856)">
                <path d="M0,0C1.921,0 8.538,-0.516 11.656,-7.507C12.683,-9.808 12.42,-13.978 12.209,-17.328C12.175,-17.86 12.143,-18.375 12.117,-18.867L12.105,-19.078L12.247,-19.236C12.303,-19.299 12.837,-19.857 14.024,-19.903L14.044,-19.904L14.063,-19.903C14.848,-19.873 15.732,-19.63 16.693,-19.18C16.833,-19.114 17.022,-19.082 17.221,-19.082C17.448,-19.082 17.689,-19.124 17.888,-19.208L17.918,-19.22C18.421,-19.396 18.777,-19.729 18.783,-20.03C18.786,-20.201 18.658,-20.813 16.874,-21.518C16.699,-21.587 16.469,-21.66 16.203,-21.744C15.042,-22.113 13.288,-22.669 12.697,-24.059C12.365,-24.844 12.455,-25.769 12.968,-26.809C13.179,-27.3 16.492,-34.767 23.952,-35.996C23.95,-36.031 23.941,-36.07 23.921,-36.116C23.795,-36.414 22.991,-37.442 17.991,-38.213C17.208,-38.334 17.017,-39.211 16.794,-40.231C16.715,-40.595 16.632,-40.963 16.52,-41.344C16.486,-41.459 16.48,-41.466 16.356,-41.466L16.297,-41.466C16.076,-41.466 15.738,-41.42 15.348,-41.344C14.639,-41.205 13.668,-41.035 12.427,-41.035C11.735,-41.035 11.021,-41.096 10.305,-41.214C8.775,-41.469 7.53,-42.349 6.212,-43.28C4.443,-44.532 2.613,-45.825 -0.178,-45.825C-0.299,-45.825 -0.418,-45.821 -0.538,-45.815L-0.569,-45.814L-0.601,-45.816C-0.669,-45.822 -0.738,-45.825 -0.809,-45.825C-3.6,-45.825 -5.43,-44.532 -7.199,-43.281C-8.517,-42.349 -9.762,-41.469 -11.291,-41.214C-12.007,-41.096 -12.721,-41.035 -13.413,-41.035C-14.654,-41.035 -15.625,-41.224 -16.335,-41.363C-16.725,-41.44 -17.062,-41.505 -17.284,-41.505C-17.464,-41.505 -17.468,-41.495 -17.506,-41.364C-17.618,-40.983 -17.701,-40.605 -17.78,-40.241C-18.003,-39.221 -18.196,-38.339 -18.977,-38.218C-23.978,-37.446 -24.781,-36.416 -24.908,-36.119C-24.928,-36.073 -24.936,-36.032 -24.938,-35.997C-17.479,-34.768 -14.165,-27.302 -13.954,-26.809C-13.442,-25.769 -13.351,-24.845 -13.684,-24.06C-14.274,-22.669 -16.028,-22.113 -17.19,-21.744C-17.456,-21.66 -17.686,-21.587 -17.86,-21.518C-19.368,-20.922 -19.831,-20.323 -19.761,-19.959C-19.682,-19.54 -18.955,-19.114 -18.321,-19.114C-18.179,-19.114 -18.054,-19.136 -17.962,-19.18C-16.932,-19.662 -15.991,-19.907 -15.167,-19.907C-13.871,-19.907 -13.293,-19.304 -13.232,-19.235L-13.091,-19.078L-13.103,-18.868C-13.129,-18.376 -13.162,-17.862 -13.195,-17.331C-13.406,-13.98 -13.669,-9.813 -12.642,-7.511C-9.536,-0.546 -2.952,-0.009 -1.008,-0.009C-0.96,-0.009 -0.115,-0.001 -0.115,-0.001C-0.079,0 -0.041,0 0,0M0,1.057L-0.002,1.057L-0.127,1.057C-0.127,1.057 -0.944,1.049 -1.009,1.049C-3.113,1.049 -10.244,0.462 -13.608,-7.08C-14.74,-9.618 -14.469,-13.928 -14.251,-17.391C-14.225,-17.799 -14.198,-18.223 -14.175,-18.633C-14.349,-18.729 -14.667,-18.849 -15.167,-18.849C-15.835,-18.849 -16.624,-18.639 -17.513,-18.222C-17.749,-18.112 -18.021,-18.056 -18.321,-18.056C-19.362,-18.056 -20.607,-18.741 -20.8,-19.761C-20.94,-20.496 -20.611,-21.568 -18.249,-22.501C-18.036,-22.586 -17.78,-22.667 -17.509,-22.752C-16.533,-23.062 -15.058,-23.53 -14.657,-24.473C-14.45,-24.962 -14.533,-25.591 -14.903,-26.341C-14.911,-26.358 -14.919,-26.375 -14.926,-26.393C-15.056,-26.695 -18.178,-33.812 -25.11,-34.953C-25.643,-35.041 -26.024,-35.517 -25.994,-36.056C-25.985,-36.217 -25.947,-36.376 -25.882,-36.531C-25.361,-37.747 -23.167,-38.639 -19.171,-39.259C-19.037,-39.439 -18.898,-40.077 -18.813,-40.466C-18.73,-40.85 -18.644,-41.245 -18.521,-41.663C-18.401,-42.073 -18.088,-42.563 -17.284,-42.563C-16.959,-42.563 -16.575,-42.488 -16.132,-42.401C-15.466,-42.271 -14.554,-42.093 -13.413,-42.093C-12.78,-42.093 -12.124,-42.148 -11.464,-42.257C-10.175,-42.472 -9.079,-43.247 -7.811,-44.143C-5.994,-45.428 -3.936,-46.882 -0.809,-46.882C-0.723,-46.882 -0.637,-46.88 -0.551,-46.873C-0.45,-46.878 -0.318,-46.882 -0.178,-46.882C2.95,-46.882 5.008,-45.428 6.823,-44.144C8.094,-43.246 9.189,-42.472 10.478,-42.257C11.138,-42.148 11.794,-42.093 12.427,-42.093C13.516,-42.093 14.377,-42.231 15.145,-42.381C15.627,-42.476 16.014,-42.524 16.297,-42.524L16.356,-42.524C16.95,-42.524 17.369,-42.21 17.535,-41.641C17.656,-41.232 17.742,-40.847 17.827,-40.457C17.912,-40.069 18.05,-39.434 18.183,-39.254C22.18,-38.634 24.374,-37.744 24.894,-36.533C24.96,-36.378 24.999,-36.217 25.008,-36.055C25.038,-35.515 24.657,-35.041 24.124,-34.953C17.189,-33.81 14.069,-26.694 13.94,-26.392C13.933,-26.375 13.925,-26.358 13.916,-26.341C13.546,-25.59 13.464,-24.962 13.671,-24.473C14.071,-23.53 15.546,-23.062 16.522,-22.753C16.795,-22.666 17.051,-22.584 17.262,-22.501C18.991,-21.818 19.858,-20.98 19.84,-20.009C19.825,-19.246 19.231,-18.566 18.287,-18.229L18.284,-18.228C17.967,-18.096 17.59,-18.024 17.221,-18.024C16.968,-18.024 16.594,-18.058 16.244,-18.222C15.422,-18.607 14.683,-18.817 14.046,-18.845C13.623,-18.826 13.347,-18.719 13.189,-18.632C13.209,-18.281 13.232,-17.919 13.255,-17.541L13.264,-17.394C13.483,-13.929 13.754,-9.615 12.622,-7.076C9.256,0.47 2.11,1.057 0,1.057" style="fill:rgb(3,3,3);fill-rule:nonzero;"/>
            </g>
        </g>
    </g>
</svg>
